assets/images/twist_orange.svg

<svg xmlns="http://www.w3.org/2000/svg" width="200mm" height="200mm" viewBox="0 0 200 200"><path d="M45937.7 16631.6s462.4 560.2 907.5 471.4c445.2-88.8 839.1-606.5 946.5-818.9 107.5-212.3 223.9-766 59.8-1097.8 0 0 358.7-214.4 660.2 187.2 418.5 557.6 47.3 1551.3-842.2 1898.1s-1413.2 96.4-1413.2 96.4z" style="fill:#fff;fill-opacity:1;fill-rule:nonzero;stroke:none" transform="matrix(.01848 0 0 -.01848 -772.106 397.024)"/><path d="M47907.8 15206.6c91-38.4 344.8-106.6 569.5 192.8 163.6 217.9 206.3 522.1 117.3 834.6-126.6 444.3-478.3 817.3-940.7 997.6-449.2 175.1-800.3 192.2-1015.8 175.8-189.2-14.4-309.7-56.5-349.1-72.2l-219.1-506.2c179.9 163.3 481.7 376.5 783.8 316.2 458.1-91.5 862.3-616.3 976.4-841.7 108.6-214.7 220.7-751.4 77.7-1096.9m173-120.4c-4.5 0-9 0-13.4.1-137.1 3.7-233.9 60.7-238 63.1l-34 20.4 17.5 35.6c154.7 312.6 43.4 855.8-59.6 1059.3-120.3 237.9-512.7 715.6-916.5 796.1-415 82.9-861.5-451.1-866-456.5l-193-233.9 445.5 1029.5 14.5 6.9c22.1 10.6 550.8 254.4 1447.3-95.1 487.3-190 858.2-584.1 992.2-1054.2 96.5-338.6 48.6-670.2-131.2-909.8-160.9-214.4-339.4-261.5-465.3-261.5" style="fill:#211d1d;fill-opacity:1;fill-rule:nonzero;stroke:none" transform="matrix(.01848 0 0 -.01848 -772.106 397.024)"/><path d="M47825.2 17130c-499.5 268.2-1206.6 214.2-1206.6 214.2l344.9 244.1s831.9-143.2 1137.1-278.8c18-8 37.4-20.1 57.6-34.5-81.9-49.2-306.2-159.4-333-145" style="fill:#e7e2b9;fill-opacity:1;fill-rule:nonzero;stroke:none" transform="matrix(.01848 0 0 -.01848 -772.106 397.024)"/><path d="M46776.9 17392c239.4 0 697.5-28.3 1060.2-219.6 34.9 6.6 147 57.6 233.7 103.2-281.1 119.6-977.6 246.1-1097.1 267.2l-213.2-150.8zm1054.2-306.5c-11.8 0-19.3 2.9-26.2 6.6-482.9 259.3-1176.1 209.8-1183.1 209.3l-155-11.8 486.4 344.1 17.6-3.1c34.2-5.8 840.7-145.6 1147.2-281.8 19.4-8.6 40.7-21.3 65.2-38.8l53.3-38-56.1-33.8c-45-27.1-123.8-67.6-191.5-98.6-91.5-42-133.7-54.1-157.8-54.1" style="fill:#211d1d;fill-opacity:1;fill-rule:nonzero;stroke:none" transform="matrix(.01848 0 0 -.01848 -772.106 397.024)"/><path d="M46806.7 14951.5c11.6 12.8 8.1 33.1-7.4 40.7-186.9 91.2-1141.6 609.9-754.4 1526.4 428.3 1014 1327.5 1061.5 1964.7 799.9l169.1-37.6-93.3 85.6s-278.2 378.9-834.3 453.3c-556.1 74.5-996.5 10.1-1481.6-514.3-374-404.4-787.2-1258-415.5-2144.8 230.5-549.8 1110.4-841.3 1110.4-841.3 55 301.3 147.6 416.5 342.3 632.1" style="fill:#c89519;fill-opacity:1;fill-rule:nonzero;stroke:none" transform="matrix(.01848 0 0 -.01848 -772.106 397.024)"/><path d="M46908.1 17802.4c-390.4 0-734.5-123.4-1107-526.1-329-355.7-785.1-1198-407.4-2098.9 190.4-454.4 856.5-732.1 1038.2-800.6 57.5 271.1 155.5 395.3 328 587-122 61.6-383.3 211.9-586.1 454.5-125.5 150.2-207.1 311.3-242.7 479.1-43.3 204.2-18.4 418.8 74.2 638 438.4 1037.6 1359.7 1092.7 2017.2 824.3l16.1-3.6c-58.1 69.5-325.3 358.5-793.2 421.1-117 15.7-229 25.2-337.3 25.2m-410.3-3539.4-46.9 15.6c-36.7 12.1-901.2 304.1-1136.5 865.5-168.7 402.4-194.2 845.5-73.7 1281.4 93.1 336.8 274.3 668.1 497.3 909.2 235.4 254.5 475.3 416 733.3 493.7 221.3 66.6 463.6 77.1 785.5 34 545.3-73 828.6-425 860.5-466.9l208.8-191.4-329.4 73.2-3.4 1.4c-621.4 255.1-1494.1 204.8-1908.8-776.8-371.1-878.5 546-1379.5 733.7-1471.1 19.4-9.4 33-27.1 37.1-48.4s-2.1-43.6-16.7-59.7c-191.5-212.1-278.5-318.2-331.9-611z" style="fill:#211d1d;fill-opacity:1;fill-rule:nonzero;stroke:none" transform="matrix(.01848 0 0 -.01848 -772.106 397.024)"/><path d="m48109.9 17336-828.1-646.4-136.5-853.7 703.9-1139.4 783.5 303.1 236.2 485.9 34.9 356.2s-20.9 254.9-137.8 496.9c-116.9 242.1-329.9 471.3-330.3 503.6-.8 64.4-322.8 40.8-322.8 40.8s403.5-522.8 497.6-789.7c94.1-266.8 56.1-613-327.4-834.2-289.8-167.1-498.8 135.1-572.4 295.3-114 248.2-137.1 454-37.9 777.7 130 424.7 276.6 544.3 487.9 620.7 213.6 77.2 667.1 36.5 981-208.6 19-14.8 48-4.3 50 19.6 6.9 84.5-177.9 299.7-177.9 299.7l-409.7 216.3z" style="fill:#e7e2b9;fill-opacity:1;fill-rule:nonzero;stroke:none" transform="matrix(.01848 0 0 -.01848 -772.106 397.024)"/><path d="M48071.1 16866.7c-148-79.6-256.2-217.3-357.2-547.1-90.8-296.4-81.4-492 35.9-747.3 55.8-121.5 161.5-266.1 290.8-307.3 72.3-23 144.5-12.7 221 31.4 450.6 259.8 349.9 664.7 308.4 782.6-90.8 257.4-487.2 772.5-491.2 777.7zm-880.8-1021.8 676.7-1095.5 734.4 284.2 225.5 463.8 33.7 344.4c-3.1 31.5-28.8 261.9-133.3 478.1-71.1 147.2-179.8 291-251.7 386.2-54.2 71.7-75.3 100.3-81.1 122.3-25.4 11.7-106.5 17.6-198.2 15.5 111.8-149.9 378.4-519.9 454.8-736.3 38.5-109.3 72.6-278.1 15.9-461.2-53.9-174.1-175.9-316.9-362.4-424.5-97.3-56.1-194.9-69.1-290.1-38.8-196.3 62.6-312 286.3-342.8 353.3-125.8 273.8-136.7 492.9-40 808.3 133.2 435.1 289.5 567.2 514.4 648.5 208.4 75.3 663.8 47.2 995.9-195.3-21.4 55-89 153-155.5 231.4l-395.3 208.7-468.7 53.3-800.9-625.1zm641.1-1201.4-731.1 1183.4 141.7 886.2 855.3 667.6 519.7-59.1 424.1-223.9 5.4-6.2c46-53.7 195.8-236.2 188-331.2-2.1-26.5-18.1-48.8-42.7-59.6-25.4-11.1-54.7-7.4-76.5 9.6-277.8 216.9-656.9 264-872.8 220.4 86-.4 179.3-9 214.6-41.4 11.8-10.9 19.1-24.7 21-39.4 7.4-14.3 38.5-55.5 66.1-92 73.9-97.8 185.7-245.7 260.5-400.6 119.1-246.4 141-501.3 141.9-512.1l.3-3.8-36-367.7-246.9-508.1z" style="fill:#211d1d;fill-opacity:1;fill-rule:nonzero;stroke:none" transform="matrix(.01848 0 0 -.01848 -772.106 397.024)"/><path d="M48392.3 17042.7c-198.5-5.6-402.3-173.9-464-229.2-5.9-5.3-1.1-15 6.8-13.9 278.4 38.3 525.2 95.6 924.9-339 3.5-3.8 9.5-3.4 12.4.9 67.8 102.3 169.5 178.3 284 252.9 4.8 3.1 5.2 9.9.7 13.3-233.6 177.6-604.6 319.4-764.8 315" style="fill:#fff;fill-opacity:1;fill-rule:nonzero;stroke:none" transform="matrix(.01848 0 0 -.01848 -772.106 397.024)"/><path d="M48392.3 17042.7h.1zm-196.6-173.9c191 0 396-64.2 666.5-347.7 59.1 76.3 135.5 138.2 228.9 201.5-229.8 160.3-559.4 281.2-697.6 277.1-123.1-3.5-251.3-77.1-339.6-140.6 46.9 5.7 93.9 9.7 141.8 9.7m640.9-383.5h-.1zm29.2-70.3c-14.2 0-27.7 5.9-37.5 16.5-366.9 399-591.2 367.3-850.9 330.6-12.1-1.7-24.2-3.4-36.5-5.1-22.4-3.1-44 8.7-53.5 29.3-9.5 20.4-4.6 44.3 12.2 59.3 78.5 70.2 283.4 234.2 491.5 240 182 5.1 566.4-152.2 792-323.7 13.2-10 20.7-25.8 20.1-42.4s-9.3-32-23.3-41.1c-118.6-77.3-210.1-147.8-271.7-240.6-8.6-13.1-22.6-21.4-38.3-22.6-1.4-.1-2.7-.2-4.1-.2" style="fill:#211d1d;fill-opacity:1;fill-rule:nonzero;stroke:none" transform="matrix(.01848 0 0 -.01848 -772.106 397.024)"/><path d="M46986.2 16635.6c-436.5-620.3-146.1-1217.9 69.8-1602.9 160.6-286.3 342.1-384.6 732.3-399 252-9.4 488.9 90.1 641.8 169.3 135.8 70.3 313.2 169.7 455.7 490.2 142.5 320.6-1.1 740.2-1.1 740.2-25.1-202.3 52.3-381.7-106.1-637.7-118.5-191.6-316.7-351.6-582-415-514.4-123-908.9 564.5-812.8 1147.8 87.8 532.5 549.7 1007.8 927.7 1078.7 282.6 53 591.1-67.7 849.7-294.4-34.2 162-622.2 445-772.5 469.7-455.4 74.7-965.9-126.6-1402.5-746.9" style="fill:#c89519;fill-opacity:1;fill-rule:nonzero;stroke:none" transform="matrix(.01848 0 0 -.01848 -772.106 397.024)"/><path d="M46986.2 16635.6h.1zm1220.5 718.8c-428.8 0-844.1-258.7-1185.3-743.5-392.9-558.4-184-1100.5 72.1-1557.2 152.4-271.6 321.6-363.2 696.4-377.1 187.2-7.1 396.1 48.4 620.4 164.5 117.7 60.9 295.4 152.9 436.2 469.6 38.6 86.7 54.9 181.8 58.5 273.4-15.8-65.6-43.2-135.6-89.8-211.1-135.2-218.4-351.4-372.6-608.6-434.1-189.9-45.5-381.7 10.8-540.3 158.4-253.1 235.7-386.7 662.6-324.9 1038.2 93.5 567.6 582.2 1042.6 962.2 1113.9 110.7 20.8 227.7 16.3 345.9-11.7-111.4 53.6-213.6 93.5-267.7 102.4-58.5 9.6-116.9 14.3-175.1 14.3m-385.3-2764.4c-11.7 0-23.2.3-34.7.7-406.2 15.1-600.1 121.3-768.2 421-115.5 205.9-239.6 453.4-284.5 727.3-54 330 19.1 639.9 217.1 921.4 407.5 579 920.5 850.6 1444.6 764.5 83.9-13.8 274.7-94.6 443.6-188.1 223.5-123.7 345.9-229.7 363.9-315.1l26.7-126.2-97.1 85c-260.9 228.7-557.4 332.4-813.3 284.4-178.1-33.4-378.1-161.9-548.6-352.6-182.5-204.1-304.9-449.4-344.6-690.8-57.5-348.7 65.3-744 298.6-961.2 96.8-90.1 255.5-187.1 461.7-137.8 235 56.2 432.3 196.7 555.4 395.8 103.7 167.6 99.8 296.9 95.7 433.8-1.8 60.1-3.7 122.1 4.3 186.6l23 185 60.4-176.4c6.1-17.8 147.4-439.4-.3-771.5-141.2-317.7-312.2-426.6-475.3-511-224.1-116.1-435.3-174.8-628.4-174.8" style="fill:#211d1d;fill-opacity:1;fill-rule:nonzero;stroke:none" transform="matrix(.01848 0 0 -.01848 -772.106 397.024)"/><path d="M45756.6 16221.4c59.5-22.6 94.7 69.8 35.2 92.4s-94.8-69.7-35.2-92.4m1957.4 795.1c59.5-22.7 94.7 69.7 35.2 92.4-59.5 22.6-94.8-69.8-35.2-92.4m-838.4-935.7c59.5-22.6 94.8 69.8 35.2 92.4-59.5 22.7-94.7-69.7-35.2-92.4m348.1 238.7c59.5-22.7 94.7 69.7 35.2 92.4-59.5 22.6-94.8-69.8-35.2-92.4m-945-1736c59.5-22.7 94.8 69.7 35.2 92.4-59.5 22.6-94.7-69.8-35.2-92.4m-786 1761.2c59.5-22.6 94.7 69.8 35.2 92.5-59.5 22.6-94.8-69.8-35.2-92.5m-26.1-265.7c59.5-22.6 94.7 69.8 35.1 92.4-59.4 22.7-94.7-69.7-35.1-92.4m559.6 953.6c59.5-22.6 94.8 69.8 35.2 92.5-59.5 22.6-94.7-69.8-35.2-92.5m639.6 471.2c59.5-22.6 94.8 69.7 35.2 92.4-59.5 22.6-94.7-69.7-35.2-92.4m431.7 40.2c59.4-22.6 94.7 69.8 35.1 92.5-59.4 22.6-94.7-69.8-35.1-92.5m-1655.7-1979.7c59.4-22.6 94.7 69.8 35.1 92.5-59.4 22.6-94.7-69.8-35.1-92.5m301.1-36.2c59.5-22.7 94.8 69.7 35.2 92.4-59.5 22.6-94.7-69.8-35.2-92.4m1371-71.6c59.4-22.6 94.7 69.8 35.1 92.5-59.4 22.6-94.7-69.8-35.1-92.5m162.6-210.5c59.4-22.6 94.7 69.8 35.1 92.4-59.4 22.7-94.7-69.7-35.1-92.4m33.8-314.5c59.5-22.7 94.8 69.7 35.2 92.4-59.5 22.6-94.7-69.8-35.2-92.4m238-50.1c59.5-22.7 94.8 69.7 35.2 92.4-59.5 22.6-94.8-69.8-35.2-92.4m352-51.5c59.4-22.6 94.7 69.8 35.1 92.4-59.5 22.7-94.7-69.7-35.1-92.4m-811.5 1142.7c59.5-22.6 94.7 69.8 35.1 92.5-59.4 22.6-94.7-69.8-35.1-92.5m-57-227.6c59.5-22.6 94.8 69.8 35.2 92.5-59.5 22.6-94.8-69.8-35.2-92.5m177.3 808.1c59.5-22.6 94.8 69.8 35.2 92.4-59.5 22.7-94.7-69.7-35.2-92.4m-130-311.7c59.5-22.6 94.8 69.8 35.2 92.4-59.5 22.7-94.8-69.7-35.2-92.4m266 527.2c59.5-22.6 94.8 69.8 35.2 92.4-59.5 22.7-94.7-69.7-35.2-92.4m-1720.6-1509.5c59.5-22.6 94.7 69.8 35.2 92.5-59.5 22.6-94.8-69.8-35.2-92.5m232.2-528c59.5-22.7 94.8 69.7 35.2 92.4-59.5 22.6-94.7-69.8-35.2-92.4m-214.8 135.6c59.4-22.6 94.7 69.8 35.1 92.4-59.4 22.7-94.7-69.7-35.1-92.4m-29.2 923.9c59.5-22.7 94.7 69.7 35.2 92.4-59.5 22.6-94.8-69.8-35.2-92.4m252.4-622.8c59.4-22.6 94.7 69.8 35.1 92.5-59.4 22.6-94.7-69.8-35.1-92.5m273.9-170.7c59.5-22.6 94.8 69.8 35.2 92.5-59.5 22.6-94.7-69.8-35.2-92.5m321.8-143.7c59.5-22.6 94.8 69.8 35.2 92.5-59.5 22.6-94.8-69.8-35.2-92.5m-335.5-93c59.5-22.6 94.8 69.8 35.2 92.5-59.5 22.6-94.7-69.8-35.2-92.5m-401.7 2218.4c59.4-22.6 94.7 69.7 35.1 92.4-59.4 22.6-94.7-69.7-35.1-92.4m8.1-358.9c59.5-22.6 94.8 69.8 35.2 92.5-59.5 22.6-94.7-69.8-35.2-92.5m464.4 770.3c59.5-22.7 94.7 69.7 35.2 92.4-59.5 22.6-94.8-69.8-35.2-92.4" style="fill:#c5b861;fill-opacity:1;fill-rule:nonzero;stroke:none" transform="matrix(.01848 0 0 -.01848 -772.106 397.024)"/></svg>

<svg xmlns="http://www.w3.org/2000/svg" width="200mm" height="200mm" viewBox="0 0 200 200"><path d="M45937.7 16631.6s462.4 560.2 907.5 471.4c445.2-88.8 839.1-606.5 946.5-818.9 107.5-212.3 223.9-766 59.8-1097.8 0 0 358.7-214.4 660.2 187.2 418.5 557.6 47.3 1551.3-842.2 1898.1s-1413.2 96.4-1413.2 96.4z" style="fill:#fff;fill-opacity:1;fill-rule:nonzero;stroke:none" transform="matrix(.01848 0 0 -.01848 -772.106 397.024)"/><path d="M47907.8 15206.6c91-38.4 344.8-106.6 569.5 192.8 163.6 217.9 206.3 522.1 117.3 834.6-126.6 444.3-478.3 817.3-940.7 997.6-449.2 175.1-800.3 192.2-1015.8 175.8-189.2-14.4-309.7-56.5-349.1-72.2l-219.1-506.2c179.9 163.3 481.7 376.5 783.8 316.2 458.1-91.5 862.3-616.3 976.4-841.7 108.6-214.7 220.7-751.4 77.7-1096.9m173-120.4c-4.5 0-9 0-13.4.1-137.1 3.7-233.9 60.7-238 63.1l-34 20.4 17.5 35.6c154.7 312.6 43.4 855.8-59.6 1059.3-120.3 237.9-512.7 715.6-916.5 796.1-415 82.9-861.5-451.1-866-456.5l-193-233.9 445.5 1029.5 14.5 6.9c22.1 10.6 550.8 254.4 1447.3-95.1 487.3-190 858.2-584.1 992.2-1054.2 96.5-338.6 48.6-670.2-131.2-909.8-160.9-214.4-339.4-261.5-465.3-261.5" style="fill:#211d1d;fill-opacity:1;fill-rule:nonzero;stroke:none" transform="matrix(.01848 0 0 -.01848 -772.106 397.024)"/><path d="M47825.2 17130c-499.5 268.2-1206.6 214.2-1206.6 214.2l344.9 244.1s831.9-143.2 1137.1-278.8c18-8 37.4-20.1 57.6-34.5-81.9-49.2-306.2-159.4-333-145" style="fill:#e7e2b9;fill-opacity:1;fill-rule:nonzero;stroke:none" transform="matrix(.01848 0 0 -.01848 -772.106 397.024)"/><path d="M46776.9 17392c239.4 0 697.5-28.3 1060.2-219.6 34.9 6.6 147 57.6 233.7 103.2-281.1 119.6-977.6 246.1-1097.1 267.2l-213.2-150.8zm1054.2-306.5c-11.8 0-19.3 2.9-26.2 6.6-482.9 259.3-1176.1 209.8-1183.1 209.3l-155-11.8 486.4 344.1 17.6-3.1c34.2-5.8 840.7-145.6 1147.2-281.8 19.4-8.6 40.7-21.3 65.2-38.8l53.3-38-56.1-33.8c-45-27.1-123.8-67.6-191.5-98.6-91.5-42-133.7-54.1-157.8-54.1" style="fill:#211d1d;fill-opacity:1;fill-rule:nonzero;stroke:none" transform="matrix(.01848 0 0 -.01848 -772.106 397.024)"/><path d="M46806.7 14951.5c11.6 12.8 8.1 33.1-7.4 40.7-186.9 91.2-1141.6 609.9-754.4 1526.4 428.3 1014 1327.5 1061.5 1964.7 799.9l169.1-37.6-93.3 85.6s-278.2 378.9-834.3 453.3c-556.1 74.5-996.5 10.1-1481.6-514.3-374-404.4-787.2-1258-415.5-2144.8 230.5-549.8 1110.4-841.3 1110.4-841.3 55 301.3 147.6 416.5 342.3 632.1" style="fill:#c89519;fill-opacity:1;fill-rule:nonzero;stroke:none" transform="matrix(.01848 0 0 -.01848 -772.106 397.024)"/><path d="M46908.1 17802.4c-390.4 0-734.5-123.4-1107-526.1-329-355.7-785.1-1198-407.4-2098.9 190.4-454.4 856.5-732.1 1038.2-800.6 57.5 271.1 155.5 395.3 328 587-122 61.6-383.3 211.9-586.1 454.5-125.5 150.2-207.1 311.3-242.7 479.1-43.3 204.2-18.4 418.8 74.2 638 438.4 1037.6 1359.7 1092.7 2017.2 824.3l16.1-3.6c-58.1 69.5-325.3 358.5-793.2 421.1-117 15.7-229 25.2-337.3 25.2m-410.3-3539.4-46.9 15.6c-36.7 12.1-901.2 304.1-1136.5 865.5-168.7 402.4-194.2 845.5-73.7 1281.4 93.1 336.8 274.3 668.1 497.3 909.2 235.4 254.5 475.3 416 733.3 493.7 221.3 66.6 463.6 77.1 785.5 34 545.3-73 828.6-425 860.5-466.9l208.8-191.4-329.4 73.2-3.4 1.4c-621.4 255.1-1494.1 204.8-1908.8-776.8-371.1-878.5 546-1379.5 733.7-1471.1 19.4-9.4 33-27.1 37.1-48.4s-2.1-43.6-16.7-59.7c-191.5-212.1-278.5-318.2-331.9-611z" style="fill:#211d1d;fill-opacity:1;fill-rule:nonzero;stroke:none" transform="matrix(.01848 0 0 -.01848 -772.106 397.024)"/><path d="m48109.9 17336-828.1-646.4-136.5-853.7 703.9-1139.4 783.5 303.1 236.2 485.9 34.9 356.2s-20.9 254.9-137.8 496.9c-116.9 242.1-329.9 471.3-330.3 503.6-.8 64.4-322.8 40.8-322.8 40.8s403.5-522.8 497.6-789.7c94.1-266.8 56.1-613-327.4-834.2-289.8-167.1-498.8 135.1-572.4 295.3-114 248.2-137.1 454-37.9 777.7 130 424.7 276.6 544.3 487.9 620.7 213.6 77.2 667.1 36.5 981-208.6 19-14.8 48-4.3 50 19.6 6.9 84.5-177.9 299.7-177.9 299.7l-409.7 216.3z" style="fill:#e7e2b9;fill-opacity:1;fill-rule:nonzero;stroke:none" transform="matrix(.01848 0 0 -.01848 -772.106 397.024)"/><path d="M48071.1 16866.7c-148-79.6-256.2-217.3-357.2-547.1-90.8-296.4-81.4-492 35.9-747.3 55.8-121.5 161.5-266.1 290.8-307.3 72.3-23 144.5-12.7 221 31.4 450.6 259.8 349.9 664.7 308.4 782.6-90.8 257.4-487.2 772.5-491.2 777.7zm-880.8-1021.8 676.7-1095.5 734.4 284.2 225.5 463.8 33.7 344.4c-3.1 31.5-28.8 261.9-133.3 478.1-71.1 147.2-179.8 291-251.7 386.2-54.2 71.7-75.3 100.3-81.1 122.3-25.4 11.7-106.5 17.6-198.2 15.5 111.8-149.9 378.4-519.9 454.8-736.3 38.5-109.3 72.6-278.1 15.9-461.2-53.9-174.1-175.9-316.9-362.4-424.5-97.3-56.1-194.9-69.1-290.1-38.8-196.3 62.6-312 286.3-342.8 353.3-125.8 273.8-136.7 492.9-40 808.3 133.2 435.1 289.5 567.2 514.4 648.5 208.4 75.3 663.8 47.2 995.9-195.3-21.4 55-89 153-155.5 231.4l-395.3 208.7-468.7 53.3-800.9-625.1zm641.1-1201.4-731.1 1183.4 141.7 886.2 855.3 667.6 519.7-59.1 424.1-223.9 5.4-6.2c46-53.7 195.8-236.2 188-331.2-2.1-26.5-18.1-48.8-42.7-59.6-25.4-11.1-54.7-7.4-76.5 9.6-277.8 216.9-656.9 264-872.8 220.4 86-.4 179.3-9 214.6-41.4 11.8-10.9 19.1-24.7 21-39.4 7.4-14.3 38.5-55.5 66.1-92 73.9-97.8 185.7-245.7 260.5-400.6 119.1-246.4 141-501.3 141.9-512.1l.3-3.8-36-367.7-246.9-508.1z" style="fill:#211d1d;fill-opacity:1;fill-rule:nonzero;stroke:none" transform="matrix(.01848 0 0 -.01848 -772.106 397.024)"/><path d="M48392.3 17042.7c-198.5-5.6-402.3-173.9-464-229.2-5.9-5.3-1.1-15 6.8-13.9 278.4 38.3 525.2 95.6 924.9-339 3.5-3.8 9.5-3.4 12.4.9 67.8 102.3 169.5 178.3 284 252.9 4.8 3.1 5.2 9.9.7 13.3-233.6 177.6-604.6 319.4-764.8 315" style="fill:#fff;fill-opacity:1;fill-rule:nonzero;stroke:none" transform="matrix(.01848 0 0 -.01848 -772.106 397.024)"/><path d="M48392.3 17042.7h.1zm-196.6-173.9c191 0 396-64.2 666.5-347.7 59.1 76.3 135.5 138.2 228.9 201.5-229.8 160.3-559.4 281.2-697.6 277.1-123.1-3.5-251.3-77.1-339.6-140.6 46.9 5.7 93.9 9.7 141.8 9.7m640.9-383.5h-.1zm29.2-70.3c-14.2 0-27.7 5.9-37.5 16.5-366.9 399-591.2 367.3-850.9 330.6-12.1-1.7-24.2-3.4-36.5-5.1-22.4-3.1-44 8.7-53.5 29.3-9.5 20.4-4.6 44.3 12.2 59.3 78.5 70.2 283.4 234.2 491.5 240 182 5.1 566.4-152.2 792-323.7 13.2-10 20.7-25.8 20.1-42.4s-9.3-32-23.3-41.1c-118.6-77.3-210.1-147.8-271.7-240.6-8.6-13.1-22.6-21.4-38.3-22.6-1.4-.1-2.7-.2-4.1-.2" style="fill:#211d1d;fill-opacity:1;fill-rule:nonzero;stroke:none" transform="matrix(.01848 0 0 -.01848 -772.106 397.024)"/><path d="M46986.2 16635.6c-436.5-620.3-146.1-1217.9 69.8-1602.9 160.6-286.3 342.1-384.6 732.3-399 252-9.4 488.9 90.1 641.8 169.3 135.8 70.3 313.2 169.7 455.7 490.2 142.5 320.6-1.1 740.2-1.1 740.2-25.1-202.3 52.3-381.7-106.1-637.7-118.5-191.6-316.7-351.6-582-415-514.4-123-908.9 564.5-812.8 1147.8 87.8 532.5 549.7 1007.8 927.7 1078.7 282.6 53 591.1-67.7 849.7-294.4-34.2 162-622.2 445-772.5 469.7-455.4 74.7-965.9-126.6-1402.5-746.9" style="fill:#c89519;fill-opacity:1;fill-rule:nonzero;stroke:none" transform="matrix(.01848 0 0 -.01848 -772.106 397.024)"/><path d="M46986.2 16635.6h.1zm1220.5 718.8c-428.8 0-844.1-258.7-1185.3-743.5-392.9-558.4-184-1100.5 72.1-1557.2 152.4-271.6 321.6-363.2 696.4-377.1 187.2-7.1 396.1 48.4 620.4 164.5 117.7 60.9 295.4 152.9 436.2 469.6 38.6 86.7 54.9 181.8 58.5 273.4-15.8-65.6-43.2-135.6-89.8-211.1-135.2-218.4-351.4-372.6-608.6-434.1-189.9-45.5-381.7 10.8-540.3 158.4-253.1 235.7-386.7 662.6-324.9 1038.2 93.5 567.6 582.2 1042.6 962.2 1113.9 110.7 20.8 227.7 16.3 345.9-11.7-111.4 53.6-213.6 93.5-267.7 102.4-58.5 9.6-116.9 14.3-175.1 14.3m-385.3-2764.4c-11.7 0-23.2.3-34.7.7-406.2 15.1-600.1 121.3-768.2 421-115.5 205.9-239.6 453.4-284.5 727.3-54 330 19.1 639.9 217.1 921.4 407.5 579 920.5 850.6 1444.6 764.5 83.9-13.8 274.7-94.6 443.6-188.1 223.5-123.7 345.9-229.7 363.9-315.1l26.7-126.2-97.1 85c-260.9 228.7-557.4 332.4-813.3 284.4-178.1-33.4-378.1-161.9-548.6-352.6-182.5-204.1-304.9-449.4-344.6-690.8-57.5-348.7 65.3-744 298.6-961.2 96.8-90.1 255.5-187.1 461.7-137.8 235 56.2 432.3 196.7 555.4 395.8 103.7 167.6 99.8 296.9 95.7 433.8-1.8 60.1-3.7 122.1 4.3 186.6l23 185 60.4-176.4c6.1-17.8 147.4-439.4-.3-771.5-141.2-317.7-312.2-426.6-475.3-511-224.1-116.1-435.3-174.8-628.4-174.8" style="fill:#211d1d;fill-opacity:1;fill-rule:nonzero;stroke:none" transform="matrix(.01848 0 0 -.01848 -772.106 397.024)"/><path d="M45756.6 16221.4c59.5-22.6 94.7 69.8 35.2 92.4s-94.8-69.7-35.2-92.4M47714 17016.5c59.5-22.7 94.7 69.7 35.2 92.4-59.5 22.6-94.8-69.8-35.2-92.4M46875.6 16080.8c59.5-22.6 94.8 69.8 35.2 92.4-59.5 22.7-94.7-69.7-35.2-92.4M47223.7 16319.5c59.5-22.7 94.7 69.7 35.2 92.4-59.5 22.6-94.8-69.8-35.2-92.4M46278.7 14583.5c59.5-22.7 94.8 69.7 35.2 92.4-59.5 22.6-94.7-69.8-35.2-92.4M45492.7 16344.7c59.5-22.6 94.7 69.8 35.2 92.5-59.5 22.6-94.8-69.8-35.2-92.5M45466.6 16079c59.5-22.6 94.7 69.8 35.1 92.4-59.4 22.7-94.7-69.7-35.1-92.4M46026.2 17032.6c59.5-22.6 94.8 69.8 35.2 92.5-59.5 22.6-94.7-69.8-35.2-92.5M46665.8 17503.8c59.5-22.6 94.8 69.7 35.2 92.4-59.5 22.6-94.7-69.7-35.2-92.4M47097.5 17544c59.4-22.6 94.7 69.8 35.1 92.5-59.4 22.6-94.7-69.8-35.1-92.5M45441.8 15564.3c59.4-22.6 94.7 69.8 35.1 92.5-59.4 22.6-94.7-69.8-35.1-92.5M45742.9 15528.1c59.5-22.7 94.8 69.7 35.2 92.4-59.5 22.6-94.7-69.8-35.2-92.4M47113.9 15456.5c59.4-22.6 94.7 69.8 35.1 92.5-59.4 22.6-94.7-69.8-35.1-92.5M47276.5 15246c59.4-22.6 94.7 69.8 35.1 92.4-59.4 22.7-94.7-69.7-35.1-92.4M47310.3 14931.5c59.5-22.7 94.8 69.7 35.2 92.4-59.5 22.6-94.7-69.8-35.2-92.4M47548.3 14881.4c59.5-22.7 94.8 69.7 35.2 92.4-59.5 22.6-94.8-69.8-35.2-92.4M47900.3 14829.9c59.4-22.6 94.7 69.8 35.1 92.4-59.5 22.7-94.7-69.7-35.1-92.4M47088.8 15972.6c59.5-22.6 94.7 69.8 35.1 92.5-59.4 22.6-94.7-69.8-35.1-92.5M47031.8 15745c59.5-22.6 94.8 69.8 35.2 92.5-59.5 22.6-94.8-69.8-35.2-92.5M47209.1 16553.1c59.5-22.6 94.8 69.8 35.2 92.4-59.5 22.7-94.7-69.7-35.2-92.4M47079.1 16241.4c59.5-22.6 94.8 69.8 35.2 92.4-59.5 22.7-94.8-69.7-35.2-92.4M47345.1 16768.6c59.5-22.6 94.8 69.8 35.2 92.4-59.5 22.7-94.7-69.7-35.2-92.4M45624.5 15259.1c59.5-22.6 94.7 69.8 35.2 92.5-59.5 22.6-94.8-69.8-35.2-92.5M45856.7 14731.1c59.5-22.7 94.8 69.7 35.2 92.4-59.5 22.6-94.7-69.8-35.2-92.4M45641.9 14866.7c59.4-22.6 94.7 69.8 35.1 92.4-59.4 22.7-94.7-69.7-35.1-92.4M45612.7 15790.6c59.5-22.7 94.7 69.7 35.2 92.4-59.5 22.6-94.8-69.8-35.2-92.4M45865.1 15167.8c59.4-22.6 94.7 69.8 35.1 92.5-59.4 22.6-94.7-69.8-35.1-92.5M46139 14997.1c59.5-22.6 94.8 69.8 35.2 92.5-59.5 22.6-94.7-69.8-35.2-92.5M46460.8 14853.4c59.5-22.6 94.8 69.8 35.2 92.5-59.5 22.6-94.8-69.8-35.2-92.5M46125.3 14760.4c59.5-22.6 94.8 69.8 35.2 92.5-59.5 22.6-94.7-69.8-35.2-92.5M45723.6 16978.8c59.4-22.6 94.7 69.7 35.1 92.4-59.4 22.6-94.7-69.7-35.1-92.4M45731.7 16619.9c59.5-22.6 94.8 69.8 35.2 92.5-59.5 22.6-94.7-69.8-35.2-92.5M46196.1 17390.2c59.5-22.7 94.7 69.7 35.2 92.4-59.5 22.6-94.8-69.8-35.2-92.4" style="fill:#c5b861;fill-opacity:1;fill-rule:nonzero;stroke:none" transform="matrix(.01848 0 0 -.01848 -772.106 397.024)"/></svg>
